X:2017
T:Boyne Hunt, The
R:Reel
C:Trad.
O:Ireland
M:4/4
L:1/8
Q:1/8=260
K:D
"D"BAFA DAFA|BAFA "Em"BEE2|"D"BAFA DAFA|ABde fddA:|
|:"D"faaf a3f|"Em"gfga bge2|"D"faaf a3f|ABde fdd2|
"D"faaf a3f|"Em"gfga bge2|"D"f2fe d2dB|ABde fedB:|

